X: 39
T:Geting-Lasse
M:2/4
L:1/16
Q:75
C:
S:
R:Schottis
O:Sweden
A:Hlsingland
N:
K:D
DFAd f2ed | c2B2 B4 | BAAc cee2 | Addf faa2 |\
DFAd f2ed | c2B2 B4 | BAAc ceec | d2d2 d4 ::
B2GB d2GB | BAAA A4 | c2Ac e2A2 | dcde f2d2 |\
B2GB d2GB | BAAA A4 | c2Ac e2A2 | d2fe d4 :||
